X: 31443
T: COTILLION No. 31. PANTHEON SETT tune 3
C:
%R: jig
B: Elias Howe "The Musician's Companion" Part 3 1844 p.144 #3
S: http://imslp.org/wiki/The_Musician's_Companion_(Howe,_Elias)
Z: 2015 John Chambers <jc:trillian.mit.edu>
M: 6/8
L: 1/8
K: G
% - - - - - - - - - - - - - - - - - - - - - - - - -
B/c/ |\
B2d dgB | (B3 A2)B | cBc edc/B/ | (A3 c2) B/c/ |\
d2d dgB | (B3 A2)B | ced dcE | F3 G2 H|]
F/G/ |\
AFG AFG | AB^c d2 F/G/ | AFG AGF | EEE E2 F/G/ |\
AFG AFG | AB^c d2c | BAG AGF | DDD "^D.C."D2 |]
K: Gm
G/A/ |\
B2A G2B | A2G F2E | GDD BDD | BAG A2 G/A/ |\
B2A G2B | c2B A2 B/c/ | dcB c2^c | d3 "^D.C."d2 |]
% - - - - - - - - - - Dance description - - - - - - - - - -
%%begintext align
%% Ladies all cross hands,
%% round and back,
%% give other hand to partners,
%% all balance and turn partners.
%%endtext
% - - - - - - - - - - - - - - - - - - - - - - - - -
%%sep 1 1 300
